lib/images/logo_consulting.svg

<svg width="189" height="24" viewBox="0 0 189 24" fill="none" xmlns="http://www.w3.org/2000/svg">
<path d="M21.79 12.41C18.5778 16.8311 14.6426 20.6785 10.15 23.79C9.24998 24.4 8.72999 23.56 9.26999 22.88C12.6707 18.6256 16.5798 14.8038 20.91 11.5C21.66 11 22.26 11.74 21.79 12.41ZM17.59 8.05998C18.15 7.27998 17.64 6.48998 16.71 7.14998C16.15 7.53998 7.34998 15.37 5.70998 17.07C4.10998 15.69 2.41998 14.25 2.01998 13.93C1.89117 13.8203 1.72419 13.7662 1.55554 13.7793C1.38689 13.7924 1.2303 13.8717 1.11998 14C1.02579 14.1159 0.974365 14.2606 0.974365 14.41C0.974365 14.5593 1.02579 14.7041 1.11998 14.82C2.30342 16.4805 3.59982 18.0576 4.99998 19.54C5.16752 19.7644 5.41634 19.9141 5.69303 19.9571C5.96973 20.0001 6.25226 19.9329 6.47998 19.77L6.61998 19.65C10.724 16.236 14.4066 12.3453 17.59 8.05998ZM5.84998 11.06C8.54879 9.05874 11.0805 6.84144 13.42 4.42998C13.6239 4.22563 13.7385 3.9487 13.7385 3.65998C13.7385 3.37126 13.6239 3.09433 13.42 2.88998L13.36 2.83998C13.09 2.64998 10.47 0.349979 10.18 0.139979C9.57998 -0.280021 8.86999 0.309979 9.26999 1.02998C9.66998 1.74998 10.39 2.88998 10.83 3.57998C10.46 3.90998 5.51998 9.49998 4.99998 10.19C4.47998 10.88 4.99998 11.71 5.87998 11.1L5.84998 11.06Z" fill="#FF6200"/>
<path d="M28.28 5.54993H31.15V11.3099L36.42 5.54993H39.88L34.58 11.1399L40.12 18.7199H36.68L32.68 13.1199L31.14 14.6999V18.6999H28.28V5.54993ZM46.87 5.45993H49.51L55.08 18.7199H52.08L50.9 15.7699H45.4L44.21 18.7199H41.29L46.87 5.45993ZM49.87 13.2099L48.15 8.93993L46.42 13.2099H49.87ZM56.6 12.2099C56.5881 11.3274 56.7502 10.4512 57.077 9.63135C57.4037 8.81148 57.8888 8.06402 58.5045 7.43163C59.1201 6.79925 59.8543 6.29434 60.6652 5.94574C61.476 5.59713 62.3475 5.41167 63.23 5.39993H63.42C64.3505 5.35037 65.2817 5.48472 66.1602 5.7953C67.0387 6.10587 67.8474 6.58658 68.54 7.20993L66.74 9.40993C65.8409 8.51018 64.622 8.0032 63.35 7.99993C62.3119 8.05178 61.3362 8.51179 60.6357 9.27975C59.9352 10.0477 59.5665 11.0614 59.61 12.0999C59.5442 13.1378 59.8925 14.1595 60.5785 14.9411C61.2645 15.7227 62.2324 16.2006 63.27 16.2699H63.55C64.5109 16.2984 65.4561 16.0219 66.25 15.4799V13.6299H63.37V11.1299H69V16.8499C67.467 18.207 65.4874 18.9511 63.44 18.9399C62.5805 18.9803 61.7214 18.8508 60.9118 18.559C60.1023 18.2672 59.3582 17.8187 58.7221 17.2393C58.086 16.6598 57.5702 15.9606 57.2044 15.1817C56.8386 14.4028 56.6298 13.5595 56.59 12.6999C56.58 12.5234 56.58 12.3465 56.59 12.1699L56.6 12.2099ZM77.15 5.45993H79.79L85.37 18.7199H82.37L81.18 15.7699H75.68L74.5 18.7199H71.58L77.15 5.45993ZM80.15 13.2099L78.43 8.93993L76.71 13.2099H80.15ZM88.3 5.54993H94.24C94.931 5.5064 95.6236 5.60263 96.2765 5.83286C96.9294 6.0631 97.5292 6.42262 98.04 6.88993C98.4157 7.29072 98.7074 7.7626 98.8981 8.2778C99.0887 8.79301 99.1744 9.34113 99.15 9.88993C99.2012 10.785 98.9568 11.6721 98.4545 12.4146C97.9522 13.1572 97.2198 13.7142 96.37 13.9999L99.55 18.6999H96.21L93.42 14.4999H91.17V18.7199H88.31L88.3 5.54993ZM94.07 11.9999C95.46 11.9999 96.26 11.2499 96.26 10.1399C96.26 8.89993 95.41 8.25993 94.01 8.25993H91.17V11.9999H94.07ZM102.81 5.59993H105.67V18.7199H102.81V5.59993Z" fill="#233241"/>
<path d="M120.73 18C119.688 18.4296 118.567 18.634 117.44 18.6C113.93 18.6 111.3 16.38 111.3 12.29C111.248 11.421 111.38 10.5509 111.688 9.73657C111.996 8.92224 112.472 8.18211 113.086 7.56466C113.699 6.94722 114.436 6.46639 115.249 6.15367C116.061 5.84095 116.931 5.7034 117.8 5.75003C118.829 5.70065 119.855 5.88884 120.8 6.30003L120.41 7.61003C119.621 7.25891 118.764 7.08483 117.9 7.10003C114.93 7.08003 113 9.00003 113 12.22C113 15.22 114.76 17.22 117.78 17.22C118.682 17.2342 119.578 17.0605 120.41 16.71L120.73 18ZM130.12 13.85C130.173 14.4623 130.097 15.0789 129.897 15.6599C129.696 16.2409 129.376 16.7731 128.956 17.2221C128.536 17.671 128.027 18.0266 127.461 18.2658C126.895 18.5049 126.284 18.6222 125.67 18.61C125.077 18.6162 124.49 18.4987 123.945 18.2649C123.401 18.0311 122.911 17.6862 122.507 17.2524C122.103 16.8185 121.794 16.3051 121.6 15.7451C121.406 15.1851 121.331 14.5907 121.38 14C121.38 11 123.38 9.26003 125.81 9.26003C128.24 9.26003 130.12 11.11 130.12 13.83V13.85ZM123.03 13.95C123.03 15.95 124.15 17.39 125.74 17.39C127.33 17.39 128.46 15.93 128.46 13.9C128.46 12.39 127.7 10.48 125.77 10.48C123.84 10.48 123 12.24 123 13.93L123.03 13.95ZM131.71 11.88C131.71 10.95 131.71 10.21 131.64 9.47003H133.07L133.16 10.94H133.21C133.503 10.419 133.933 9.9875 134.452 9.6916C134.972 9.39569 135.562 9.24652 136.16 9.26003C137.39 9.26003 139.31 10 139.31 13.07V18.4H137.69V13.23C137.69 11.79 137.15 10.58 135.63 10.58C135.136 10.5889 134.658 10.7544 134.264 11.0528C133.871 11.3512 133.582 11.7669 133.44 12.24C133.364 12.4862 133.327 12.7425 133.33 13V18.38H131.71V11.88ZM141.27 16.75C141.925 17.1387 142.668 17.3555 143.43 17.38C144.61 17.38 145.17 16.8 145.17 16.05C145.17 15.3 144.69 14.86 143.5 14.42C141.89 13.83 141.13 12.95 141.13 11.88C141.13 10.44 142.3 9.26003 144.22 9.26003C144.986 9.24834 145.741 9.43801 146.41 9.81003L146 11C145.445 10.664 144.809 10.4843 144.16 10.48C143.16 10.48 142.68 11.03 142.68 11.7C142.68 12.37 143.21 12.77 144.38 13.23C145.92 13.8 146.72 14.58 146.72 15.91C146.72 17.5 145.49 18.61 143.38 18.61C142.503 18.6202 141.638 18.4032 140.87 17.98L141.27 16.75ZM155.83 15.96C155.83 16.89 155.83 17.7 155.91 18.4H154.47L154.38 16.94C154.078 17.4639 153.639 17.8959 153.111 18.19C152.583 18.4841 151.984 18.6293 151.38 18.61C149.98 18.61 148.3 17.82 148.3 14.69V9.45003H149.92V14.38C149.92 16.09 150.45 17.24 151.92 17.24C152.385 17.2314 152.838 17.0853 153.22 16.8202C153.603 16.555 153.898 16.1827 154.07 15.75C154.162 15.4829 154.209 15.2025 154.21 14.92V9.45003H155.83V15.96ZM158.08 5.28003H159.7V18.38H158.08V5.28003ZM163.93 6.89003V9.45003H166.26V10.68H163.93V15.49C163.93 16.61 164.25 17.24 165.16 17.24C165.477 17.2433 165.794 17.203 166.1 17.12L166.17 18.35C165.705 18.5155 165.213 18.5935 164.72 18.58C164.396 18.5974 164.072 18.5448 163.77 18.4258C163.468 18.3067 163.195 18.124 162.97 17.89C162.484 17.2157 162.26 16.3875 162.34 15.56V10.68H161V9.45003H162.39V7.29003L163.93 6.89003ZM169.45 6.89003C169.45 7.08781 169.391 7.28115 169.281 7.4456C169.172 7.61005 169.015 7.73822 168.833 7.81391C168.65 7.8896 168.449 7.9094 168.255 7.87081C168.061 7.83223 167.883 7.73699 167.743 7.59714C167.603 7.45728 167.508 7.2791 167.469 7.08512C167.431 6.89114 167.45 6.69007 167.526 6.50735C167.602 6.32462 167.73 6.16844 167.894 6.05856C168.059 5.94868 168.252 5.89003 168.45 5.89003C168.584 5.88997 168.716 5.91679 168.84 5.96891C168.963 6.02103 169.075 6.09739 169.168 6.19345C169.261 6.28951 169.334 6.40332 169.383 6.52813C169.431 6.65294 169.454 6.7862 169.45 6.92003V6.89003ZM167.63 18.35V9.45003H169.25V18.38L167.63 18.35ZM171.49 11.83C171.49 10.9 171.49 10.16 171.42 9.42003H172.86L172.95 10.89C173.248 10.3621 173.686 9.92619 174.215 9.62993C174.744 9.33367 175.344 9.18842 175.95 9.21003C177.17 9.21003 179.1 9.95003 179.1 13.02V18.35H177.48V13.23C177.48 11.79 176.93 10.58 175.41 10.58C174.917 10.5904 174.439 10.7565 174.046 11.0547C173.652 11.3528 173.363 11.7677 173.22 12.24C173.149 12.4872 173.112 12.7429 173.11 13V18.38H171.49V11.83ZM188.63 9.42003C188.63 10.05 188.56 10.77 188.56 11.86V17.05C188.56 19.12 188.13 20.36 187.28 21.14C186.362 21.9025 185.192 22.2948 184 22.24C182.952 22.2722 181.916 22.0199 181 21.51L181.41 20.26C182.204 20.7356 183.114 20.9813 184.04 20.97C185.7 20.97 186.92 20.11 186.92 17.84V16.84C186.624 17.3211 186.204 17.7139 185.705 17.9777C185.205 18.2416 184.644 18.3667 184.08 18.34C181.85 18.34 180.27 16.45 180.27 13.97C180.27 10.97 182.27 9.23003 184.27 9.23003C184.833 9.19872 185.393 9.32657 185.886 9.59894C186.38 9.8713 186.787 10.2772 187.06 10.77L187.13 9.44003L188.63 9.42003ZM186.94 13C186.948 12.7535 186.917 12.5073 186.85 12.27C186.713 11.7709 186.416 11.3307 186.004 11.0179C185.591 10.7051 185.087 10.5371 184.57 10.54C183.02 10.54 181.91 11.86 181.91 13.93C181.91 15.68 182.81 17.15 184.55 17.15C185.055 17.1476 185.546 16.9844 185.953 16.6842C186.359 16.3839 186.659 15.9622 186.81 15.48C186.898 15.1984 186.942 14.905 186.94 14.61V13Z" fill="#233241"/>
</svg>

<svg width="189" height="24" fill="none" xmlns="http://www.w3.org/2000/svg"><path d="M21.79 12.41a48.572 48.572 0 01-11.64 11.38c-.9.61-1.42-.23-.88-.91A66.688 66.688 0 0120.91 11.5c.75-.5 1.35.24.88.91zm-4.2-4.35c.56-.78.05-1.57-.88-.91-.56.39-9.36 8.22-11 9.92-1.6-1.38-3.29-2.82-3.69-3.14a.64.64 0 00-.9.07.65.65 0 000 .82A44.415 44.415 0 005 19.54a1.07 1.07 0 001.48.23l.14-.12A67.208 67.208 0 0017.59 8.06zm-11.74 3a62 62 0 007.57-6.63 1.09 1.09 0 000-1.54l-.06-.05c-.27-.19-2.89-2.49-3.18-2.7-.6-.42-1.31.17-.91.89s1.12 1.86 1.56 2.55c-.37.33-5.31 5.92-5.83 6.61-.52.69 0 1.52.88.91l-.03-.04z" fill="#FF6200"/><path d="M28.28 5.55h2.87v5.76l5.27-5.76h3.46l-5.3 5.59 5.54 7.58h-3.44l-4-5.6-1.54 1.58v4h-2.86V5.55zm18.59-.09h2.64l5.57 13.26h-3l-1.18-2.95h-5.5l-1.19 2.95h-2.92l5.58-13.26zm3 7.75l-1.72-4.27-1.73 4.27h3.45zm6.73-1a6.72 6.72 0 016.63-6.81h.19a7.09 7.09 0 015.12 1.81l-1.8 2.2A4.81 4.81 0 0063.35 8a3.94 3.94 0 00-3.74 4.1 3.93 3.93 0 003.66 4.17h.28a4.55 4.55 0 002.7-.79v-1.85h-2.88v-2.5H69v5.72a8.32 8.32 0 01-5.56 2.09 6.55 6.55 0 01-6.85-6.24 4.685 4.685 0 010-.53l.01.04zm20.55-6.75h2.64l5.58 13.26h-3l-1.19-2.95h-5.5l-1.18 2.95h-2.92l5.57-13.26zm3 7.75l-1.72-4.27-1.72 4.27h3.44zm8.15-7.66h5.94a5.15 5.15 0 013.8 1.34 4.12 4.12 0 011.11 3A4.09 4.09 0 0196.37 14l3.18 4.7h-3.34l-2.79-4.2h-2.25v4.22h-2.86L88.3 5.55zM94.07 12c1.39 0 2.19-.75 2.19-1.86 0-1.24-.85-1.88-2.25-1.88h-2.84V12h2.9zm8.74-6.4h2.86v13.12h-2.86V5.6zM120.73 18a7.998 7.998 0 01-3.29.6c-3.51 0-6.14-2.22-6.14-6.31a6.175 6.175 0 011.786-4.725A6.168 6.168 0 01117.8 5.75a6.711 6.711 0 013 .55l-.39 1.31a5.918 5.918 0 00-2.51-.51c-2.97-.02-4.9 1.9-4.9 5.12 0 3 1.76 5 4.78 5a6.512 6.512 0 002.63-.51l.32 1.29zm9.39-4.15a4.384 4.384 0 01-4.45 4.76 4.26 4.26 0 01-4.29-4.61c0-3 2-4.74 4.43-4.74 2.43 0 4.31 1.85 4.31 4.57v.02zm-7.09.1c0 2 1.12 3.44 2.71 3.44 1.59 0 2.72-1.46 2.72-3.49 0-1.51-.76-3.42-2.69-3.42S123 12.24 123 13.93l.03.02zm8.68-2.07c0-.93 0-1.67-.07-2.41h1.43l.09 1.47h.05a3.3 3.3 0 012.95-1.68c1.23 0 3.15.74 3.15 3.81v5.33h-1.62v-5.17c0-1.44-.54-2.65-2.06-2.65a2.331 2.331 0 00-2.19 1.66 2.478 2.478 0 00-.11.76v5.38h-1.62v-6.5zm9.56 4.87a4.517 4.517 0 002.16.63c1.18 0 1.74-.58 1.74-1.33 0-.75-.48-1.19-1.67-1.63-1.61-.59-2.37-1.47-2.37-2.54 0-1.44 1.17-2.62 3.09-2.62a4.368 4.368 0 012.19.55L146 11a3.6 3.6 0 00-1.84-.52c-1 0-1.48.55-1.48 1.22 0 .67.53 1.07 1.7 1.53 1.54.57 2.34 1.35 2.34 2.68 0 1.59-1.23 2.7-3.34 2.7a5.079 5.079 0 01-2.51-.63l.4-1.23zm14.56-.79c0 .93 0 1.74.08 2.44h-1.44l-.09-1.46a3.342 3.342 0 01-3 1.67c-1.4 0-3.08-.79-3.08-3.92V9.45h1.62v4.93c0 1.71.53 2.86 2 2.86a2.358 2.358 0 002.15-1.49c.092-.267.139-.547.14-.83V9.45h1.62v6.51zm2.25-10.68h1.62v13.1h-1.62V5.28zm5.85 1.61v2.56h2.33v1.23h-2.33v4.81c0 1.12.32 1.75 1.23 1.75.317.003.634-.037.94-.12l.07 1.23a4 4 0 01-1.45.23 2.26 2.26 0 01-1.75-.69 3.422 3.422 0 01-.63-2.33v-4.88H161V9.45h1.39V7.29l1.54-.4zm5.52 0a1 1 0 11-.067-.362c.048.125.071.258.067.392v-.03zm-1.82 11.46v-8.9h1.62v8.93l-1.62-.03zm3.86-6.52c0-.93 0-1.67-.07-2.41h1.44l.09 1.47a3.31 3.31 0 013-1.68c1.22 0 3.15.74 3.15 3.81v5.33h-1.62v-5.12c0-1.44-.55-2.65-2.07-2.65a2.34 2.34 0 00-2.19 1.66 2.833 2.833 0 00-.11.76v5.38h-1.62v-6.55zm17.14-2.41c0 .63-.07 1.35-.07 2.44v5.19c0 2.07-.43 3.31-1.28 4.09a4.79 4.79 0 01-3.28 1.1 5.8 5.8 0 01-3-.73l.41-1.25a4.998 4.998 0 002.63.71c1.66 0 2.88-.86 2.88-3.13v-1a3.161 3.161 0 01-2.84 1.5c-2.23 0-3.81-1.89-3.81-4.37 0-3 2-4.74 4-4.74a2.997 2.997 0 012.79 1.54l.07-1.33 1.5-.02zM186.94 13a2.4 2.4 0 00-.09-.73 2.354 2.354 0 00-2.28-1.73c-1.55 0-2.66 1.32-2.66 3.39 0 1.75.9 3.22 2.64 3.22a2.382 2.382 0 002.26-1.67c.088-.282.132-.575.13-.87V13z" fill="#233241"/></svg>
